flrchain/images/icon-menu-home.svg

<?xml version="1.0" encoding="utf-8"?>
<!-- Generator: Adobe Illustrator 25.2.1, SVG Export Plug-In . SVG Version: 6.00 Build 0)  -->
<svg version="1.1" id="Home" xmlns="http://www.w3.org/2000/svg" xmlns:xlink="http://www.w3.org/1999/xlink" x="0px" y="0px"
	 viewBox="0 0 18 18.9459991" style="enable-background:new 0 0 18 18.9459991;" xml:space="preserve">
<style type="text/css">
	.st0{fill:#23BC3D;}
</style>
<path id="Home-2" class="st0" d="M14.4759998,18.9459991h-1.8850002c-0.8961134-0.0111141-1.6346464-0.7062035-1.6999998-1.6000004
	L10.882,17.2129993V14.5c-0.0027142-0.29529-0.2198896-0.5447016-0.5120001-0.5880003l-0.085-0.0089998h-2.527
	C7.4630909,13.9062033,7.2142386,14.1232605,7.171,14.415l-0.0089998,0.0860004v2.6999998
	c-0.0014663,0.057106-0.007823,0.1139793-0.0190001,0.1700001l-0.0089998,0.0200005l-0.0110002,0.066
	c-0.1125889,0.811203-0.7824297,1.4299698-1.5999999,1.4780006l-0.1240001,0.0090008H3.7
	c-1.968092-0.0002613-3.5927281-1.5388355-3.7-3.5040026V7.5689998C0.0091033,6.7744884,0.3529629,6.0206842,0.947,5.493
	L6.849,0.747c1.1982527-0.9518785,2.8810625-0.9983289,4.1300001-0.114L11.132,0.747l5.7679996,4.6140003
	c0.629509,0.4899292,1.0251598,1.2210293,1.0909996,2.0159998L18,7.5689998v7.6819997
	C17.9950085,17.2238865,16.4464378,18.8476009,14.4759998,18.9459991z M7.6170001,12.5880003h2.6719995
	c1.0003767,0.0060596,1.8301153,0.7758799,1.9110003,1.7729998v2.8509998
	c-0.0009661,0.1976261,0.1382084,0.3682423,0.3319998,0.4069996h1.7680006
	c1.2521324,0.0016174,2.2902498-0.9695377,2.3720007-2.2189999l0.0109997-0.151V7.5770001
	C16.6724968,7.1717343,16.5020981,6.7870798,16.2089996,6.507l-0.1229992-0.0999999L10.3079996,1.78
	c-0.374588-0.2980026-0.8393335-0.4598525-1.3179998-0.459C8.5694313,1.3200767,8.1579323,1.4432135,7.8069997,1.675l-0.1430001,0.1
	L1.9,6.4219999c-0.3201963,0.2409606-0.5282265,0.6021242-0.576,1l-0.011,0.152v7.6739993
	c0.0035686,1.2561264,0.9831076,2.2930279,2.237,2.368h1.8500001c0.204226,0.0078106,0.3824224-0.1374035,0.4159999-0.3390007
	l0.02-0.1709995l0.0100002-0.0489998V14.5C5.8398218,13.495389,6.6148572,12.6586485,7.6170001,12.5880003z"/>
</svg>

<svg id="Home" xmlns="http://www.w3.org/2000/svg" width="18" height="18.946" viewBox="0 0 18 18.946">
  <path id="Home-2" data-name="Home" d="M14.476,18.946H12.591a1.726,1.726,0,0,1-1.7-1.6l-.009-.133V14.5a.6.6,0,0,0-.512-.588l-.085-.009H7.758a.6.6,0,0,0-.587.512l-.009.086v2.7a1,1,0,0,1-.019.17l-.009.02-.011.066a1.717,1.717,0,0,1-1.6,1.478l-.124.009H3.7A3.706,3.706,0,0,1,0,15.44V7.569A2.82,2.82,0,0,1,.947,5.493L6.849.747a3.442,3.442,0,0,1,4.13-.114l.153.114L16.9,5.361a2.853,2.853,0,0,1,1.091,2.016L18,7.569v7.682A3.709,3.709,0,0,1,14.476,18.946ZM7.617,12.588h2.672A1.929,1.929,0,0,1,12.2,14.361v2.851a.413.413,0,0,0,.332.407H14.3A2.374,2.374,0,0,0,16.672,15.4l.011-.151V7.577a1.535,1.535,0,0,0-.474-1.07l-.123-.1L10.308,1.78A2.111,2.111,0,0,0,8.99,1.321a2.138,2.138,0,0,0-1.183.354l-.143.1L1.9,6.422a1.471,1.471,0,0,0-.576,1l-.011.152v7.674a2.379,2.379,0,0,0,2.237,2.368H5.4a.406.406,0,0,0,.416-.339l.02-.171.01-.049V14.5A1.905,1.905,0,0,1,7.617,12.588Z" transform="translate(0 0)" fill="#06bcc1"/>
</svg>
